src/pos-icons/bell-plus.svg

<svg height="24" viewBox="0 0 24 24" width="24" xmlns="http://www.w3.org/2000/svg"><path d="m17 14v3h-3v2h3v3h2v-3h3v-2h-3v-3m-7-12a2 2 0 0 0 -2 2 2 2 0 0 0 0 .29c-2.88.85-5 3.53-5 6.71v6l-2 2v1h9.35a6 6 0 0 1 -.35-2 6 6 0 0 1 6-6 6 6 0 0 1 1 .09v-1.09c0-3.18-2.12-5.86-5-6.71a2 2 0 0 0 0-.29 2 2 0 0 0 -2-2m-2 19a2 2 0 0 0 2 2 2 2 0 0 0 1.65-.87 6 6 0 0 1 -.84-1.13z"/></svg>

<?xml version="1.0" encoding="UTF-8"?><!DOCTYPE svg PUBLIC "-//W3C//DTD SVG 1.1//EN" "http://www.w3.org/Graphics/SVG/1.1/DTD/svg11.dtd"><svg xmlns="http://www.w3.org/2000/svg" xmlns:xlink="http://www.w3.org/1999/xlink" version="1.1" id="mdi-bell-plus" width="24" height="24" viewBox="0 0 24 24"><path d="M17 14V17H14V19H17V22H19V19H22V17H19V14M12 2A2 2 0 0 0 10 4A2 2 0 0 0 10 4.29C7.12 5.14 5 7.82 5 11V17L3 19V20H12.35A6 6 0 0 1 12 18A6 6 0 0 1 18 12A6 6 0 0 1 19 12.09V11C19 7.82 16.88 5.14 14 4.29A2 2 0 0 0 14 4A2 2 0 0 0 12 2M10 21A2 2 0 0 0 12 23A2 2 0 0 0 13.65 22.13A6 6 0 0 1 12.81 21Z" /></svg>
